X: 26
T:DANS MON PANTALON
M:2/4
L:1/8
Q:260
C:trad. Bresse/Jura
R:scottish
K:C
e2g2|e2g2|e2g2|e4|g2fe|d2de|f2ed|1 e2c2:|2 c4|!
|:c2B2|AG AB|c2d2|e4|e2g2|gf ed|1 c2c2|c4:|2 c2e2|c4||
